X: 1
T: Din Tarrant's
M: 2/4
L: 1/8
R: polka
K: Gmaj
D | G2 G>A | B>A B/c/d | GB dB | AG ED |
G2 G>A | B>A B/c/d | e/f/g fg | AG G :|
|: A | Bd de/f/ | g>f ed | Bd de/f/ | gB A2 |
Bd de/f/ | g>f ed | B/c/d Bd | BG G :|
